html/assets/images/dynamic/icon1.svg

<svg width="78" height="101" viewBox="0 0 78 101" fill="none" xmlns="http://www.w3.org/2000/svg">
<g id="Group">
<path id="Vector" d="M15.4852 29.6313C18.8064 29.7775 23.1092 30.3415 23.1092 30.3415C24.7385 34.0595 30.4826 37.4642 31.7567 38.5295C35.1823 41.3702 42.1797 41.8715 44.8951 43.9185C48.7802 46.8428 51.976 50.3101 56.9472 50.3728C62.7958 50.4354 63.3179 46.5086 62.6913 44.3571C62.1065 42.3728 61.5634 40.1587 57.2396 37.9864C54.3363 36.5243 50.9316 35.3337 49.365 31.9081C48.4877 29.9864 47.8193 28.023 48.1326 26.3311C48.6757 23.5321 51.5164 23.1353 53.0621 23.365C55.506 23.7201 62.1691 30.4878 63.7984 31.9708C63.3806 33.4329 62.1065 36.2945 62.0438 38.8637C61.8558 45.8819 65.2396 50.6652 67.579 50.6652C71.7774 50.6652 71.3597 45.5686 72.2579 41.6626C72.9054 38.7801 75.8714 27.7932 74.827 26.0804C73.7826 24.3677 63.3597 12.0439 60.519 11.1667C57.6783 10.3103 40.6131 4.56616 34.2632 4.56616H15.4644" stroke="#00999A" stroke-width="4" stroke-miterlimit="10"/>
<path id="Vector_2" d="M15.4847 2.47729H2.95215V33.8088H15.4847V2.47729Z" stroke="#00999A" stroke-width="4" stroke-miterlimit="10"/>
<path id="Vector_3" d="M61.4377 56.7852C55.6727 56.7852 50.9939 61.464 50.9939 67.229C50.9939 71.5109 53.584 75.1872 57.2602 76.7955V79.7616L59.349 81.8503L57.2602 83.9391V88.1166L59.349 90.2054L57.2602 92.2942V98.5604H61.4377L65.6152 94.3829V76.7955C69.2915 75.1872 71.8815 71.5109 71.8815 67.229C71.8815 61.464 67.2027 56.7852 61.4377 56.7852Z" stroke="#00999A" stroke-width="4" stroke-miterlimit="10"/>
<path id="Vector_4" d="M48.9047 59.6885C46.2311 59.6885 43.5575 60.712 41.5105 62.7381C38.4818 65.7668 37.7089 70.1741 39.171 73.9339L32.1737 80.9312V83.9182L27.9962 85.1087L23.7769 89.328L26.722 92.2732H32.1737L44.7063 79.7406C47.2963 80.7641 50.3877 80.7432 53.0613 79.6362" stroke="#00999A" stroke-width="4" stroke-miterlimit="10"/>
<path id="Vector_5" d="M61.4373 65.1403V48.4302" stroke="#00999A" stroke-width="4" stroke-miterlimit="10"/>
</g>
</svg>

<svg width="78" height="101" fill="none" xmlns="http://www.w3.org/2000/svg"><g stroke="#00999A" stroke-width="4" stroke-miterlimit="10"><path d="M15.485 29.631c3.321.146 7.624.71 7.624.71 1.63 3.718 7.374 7.123 8.648 8.188 3.425 2.841 10.423 3.342 13.138 5.39 3.885 2.924 7.081 6.391 12.052 6.454 5.849.062 6.37-3.864 5.744-6.016-.585-1.984-1.128-4.198-5.451-6.37-2.904-1.463-6.308-2.653-7.875-6.079-.877-1.922-1.546-3.885-1.232-5.577.543-2.799 3.383-3.196 4.93-2.966 2.443.355 9.106 7.123 10.735 8.606-.417 1.462-1.692 4.323-1.754 6.893-.188 7.018 3.196 11.801 5.535 11.801 4.198 0 3.78-5.096 4.679-9.002.647-2.883 3.613-13.87 2.569-15.583-1.044-1.712-11.467-14.036-14.308-14.913-2.84-.857-19.906-6.6-26.256-6.6H15.464"/><path d="M15.485 2.477H2.952V33.81h12.533V2.477zm45.953 54.308c-5.765 0-10.444 4.679-10.444 10.444 0 4.282 2.59 7.958 6.266 9.567v2.966l2.089 2.088-2.089 2.09v4.177l2.089 2.088-2.089 2.09v6.265h4.178l4.177-4.177V76.796c3.677-1.609 6.267-5.285 6.267-9.567 0-5.765-4.68-10.444-10.444-10.444zm-12.533 2.903a10.49 10.49 0 00-7.395 3.05c-3.028 3.029-3.801 7.436-2.339 11.196l-6.997 6.997v2.987l-4.178 1.19-4.22 4.22 2.946 2.945h5.452l12.532-12.532c2.59 1.023 5.682 1.002 8.355-.105m8.376-14.496V48.43"/></g></svg>
